X: 31515
T: Paddy's In Chicago
R: hornpipe
M: 4/4
K: Gmajor
ga|bddb ageg|dedB AGAB|Ggab aged|eaag a2ga|
bddb ageg|dedB AGAB|GAGE DEGB|AGAB G2:|
GA|BDDB AG (3 EFG|DEGB AGEG|(3 BAG AG ABGd|
eAAG A2dc|BDDB AGEG|DEGB AGAB|Ggab ageg|dggf g2:|

